!!!OTL: Die Hauptmannstochter Jesli te, ma mila, hlava boli
!!!ARE: Europa, Osteuropa, Tschechoslowakei, Maehren
!!!ARD1: Europa%Osteuropa%Deutschland@Maehren:?
!!!ARL1: 50.53/7.91:?
!!!ARD2: Europa%Osteuropa%Tschechoslowakei@
!!!ARL2: 49.75/15@
!!!YOR: 5, S. 138
!!    1895 gedruckt in Prag (vor)
!!!SCT: Q3101E
!!!YEM: Copyright 1995, estate of Helmut Schaffrath.
**kern
*ICvox
*Ivox
*M3/8
*k[b-e-]
*g:
=1
{8.g
16g
8a
=2
8.b-
16a
8cc
=3
16b-
16a
4g
=4
4fn
8r}
=5
{8.b-
16b-
8cc
=6
8.dd
16dd
8b-
=7
16ee
16dd
4cc
=8
4b-
8r}
=9
{8.dd
16cc
8a
=10
8cc
16b-
16a
8g
=11
16b-
16a
4g
=12
8.a
16a
8d}
=13
{8.g
16g
8a
=14
8b-
8a
8b-
=15
16cc
16b-
4a
=16
4g
8r}
==
!!!AGN: ???
!! Melodievergleich zu Q0101D, anderes Lied.
!!!ONB: ESAC (Essen Associative Code) Database: BALLADE
!!!AMT: simple triple
!!!AIN: vox
!!!EED: Helmut Schaffrath
!!!EEV: 1.0
*-
!!!title: @{OTL} [@{SCT}]
